X:1
T: Barley Hill
C:C Sherrit
R:Reel
Q:232
K:A
M:4/4
L:1/8
E|:A2((3GAB) AB cd|e^d fe c2c2|B^A cB GE GB|Ae ^de =dE FG|
A2((3GAB) AB cd|e^d fe cA GA|B2EF GA BG|1A2c2 A2E2:|2A2c2 Ac de|
|:f2fg aA df|fe ^de c2c2|Bd BA AG FE|ce ^de cA =de|
f2fg aA df|fe ^de cA GA|B2EF GA BG|1A2c2|Ac de:|2A2c2 A3||
